X:1
T:Title
%%score ( 1 2 ) { 3 | 4 }
L:1/8
Q:1/4=93
M:3/4
K:Ab
V:1 treble nm="Grand Piano, Soprano"
V:2 treble 
V:3 bass nm="Choir Pad, Montmartre, A. B Kolb, 1898"
V:4 bass 
V:1
 [Ec]>[Ec] [Ec]3 [EA] | .B2 z2 z2 | [Ae]>[Ae] [Ge]3 [Ge] | [Gf][F=d] [Ge]4 | [Ed]>[Ed] [Ec]3 [EA] | %5
w: By~Arranged~by~Abram~Bowman~Kolb,~1898 * * *|||||
 .B2 z2 z2 | [EA][FB] [Ec]E [Gc]2- | [Gc][GB] A4 | [Ae]>[Ae] [Ae]3 [Ae] | c/d/[Ae] [Af]2 [Ae]2 | %10
w: |||||
 [Ac]>[Ac] [Ac]3 [Ae] | [ce]/[Bd]/[Ac] [GB]4 | [Ge]>[Ge] [Ae]3 [Ac] | c/d/[Fe] [Fe]2 [Fd]2 | %14
w: ||||
 [DF][FB] [EA][EG] [Gc]2- | [Gc][GB] A4- | A4 z2 |] %17
w: |||
V:2
 x6 | F/-[FA]/[DF] [CE]2 [EA]2 | x6 | x6 | x6 | E/-[EA]/[DF] [CE]2 [EA]2 | x6 | x6 | x6 | %9
 .A2 z2 z2 | x6 | x6 | x6 | .F2 z2 z2 | x6 | x6 | x6 |] %17
V:3
 A,>A, A,3 A, | A,A, A,2 A,2 | C>C B,3 B, | B,B, B,4 | B,>B, A,3 A, | A,A, A,2 C2 | %6
 A,A, A,[K:treble]C E2- | ED C4 | C>C C3 C | EC D2 C2 | E>E E3 C | EE E4 | B,>B, C3 E | EC D2 D2 | %14
 DD CB, E2- | ED C4- | C4 z2 |] %17
V:4
 A,,>A,, A,,3 C, | D,D, A,,2 A,,2 | A,>A, E,3 E, | B,,B,, E,4 | E,>E, A,,3 C, | D,D, A,,2 A,,2 | %6
 C,D, E,E, E,2- | E,E, A,,4 | A,>A, A,3 A, | A,A, A,2 A,2 | A,>A, A,3 A, | G,A, E,4 | %12
 E,>E, A,3 A, | =A,A, B,2 B,2 | D,D, E,E, E,2- | E,E, A,,4- | A,,4 z2 |] %17

